X: 461
T: The Wild Geese
C: Trad arr. Bert Murray
R: jig
B: Bert Murray's "Bon Accord Collection" 1999 p.46
%
Z: 2011 John Chambers <jc:trillian.mit.edu>
M: 6/8
L: 1/8
K: G
uc |\
Bdd dBd | efg dBG | B2d dBG | F2A ABc |\
B2d dBd | efg dBG | ABc def | gdB G2 :|
(ud/e//f//) |\
g3 GBd | gfg dBG | cBA ecA | afd def |\
g3 GBd | gfg dBG | ABc def | g3 def |
g3 GBd | gfg dBG | c2A e2A | afd def |\
g3 dBd | e2g d2B | ABc def | g3 g2 |]

%%sep 2 1 500

